_inc/images/systems/logos/uzebox.svg

<svg viewBox="0 0 264 81" xmlns="http://www.w3.org/2000/svg">
    <path d="m0 56.708 7.677-36.23 11.276.118-5.799 26.54 15.519-.09 5.468-26.487 9.854.057-2.44 10.366L110.469 0 70.105 53.845l26.524-12.604 4.667-20.567 36.177.329-2.375 9.198-26.508-.39-1.046 4.387 18.71.111-2.191 9.049-18.92-.271-.489 3.889 26.989.16-1.936 9.781-36.595-.37 1.575-7.924-69.27 32.337 31.831-46.193-17.861 8.021-2.842 14.398L0 56.708Zm225.418-31.903 1.038-4.295 11.171.058 5.556 9.835 10.29-9.952 10.527.138-.253 3.838-15.784 14.004 8.605 13.91.137 4.344-11.344.094-5.754-9.879-10.202 9.772-11.056.123.537-3.642 15.427-14.51-8.895-13.838ZM189.057 46.85l3.411-16.387 16.165-.01-3.214 16.649Zm23.247 10.299 8.339-36.363-36.274-.007-7.934 36.282Zm-62.173-23.535.537-3.335 16.934.048-.613 3.436Zm-2.422 13.262.537-3.334 16.933.047-.613 3.437Zm17.702 9.438 6.783-5.101 1.569-7.963-4.536-5.662 7.048-4.533 1.861-8.27-4.56-4.13-30.336-.057-7.776 35.73Z" style="fill:#fff"/>
</svg>

<?xml version="1.0" encoding="utf-8"?>
<svg viewBox="0 0 264 81" xmlns="http://www.w3.org/2000/svg">
  <path d="M 0 56.708 L 7.677 20.478 L 18.953 20.596 L 13.154 47.136 L 28.673 47.046 L 34.141 20.559 L 43.995 20.616 L 41.555 30.982 L 110.469 0 L 70.105 53.845 L 96.629 41.241 L 101.296 20.674 L 137.473 21.003 L 135.098 30.201 L 108.59 29.811 L 107.544 34.198 L 126.254 34.309 L 124.063 43.358 L 105.143 43.087 L 104.654 46.976 L 131.643 47.136 L 129.707 56.917 L 93.112 56.547 L 94.687 48.623 L 25.417 80.96 L 57.248 34.767 L 39.387 42.788 L 36.545 57.186 L 0 56.708 Z" style="fill: rgb(255, 255, 255);"/>
  <path d="M 225.418 24.805 L 226.456 20.51 L 237.627 20.568 L 243.183 30.403 L 253.473 20.451 L 264 20.589 L 263.747 24.427 L 247.963 38.431 L 256.568 52.341 L 256.705 56.685 L 245.361 56.779 L 239.607 46.9 L 229.405 56.672 L 218.349 56.795 L 218.886 53.153 L 234.313 38.643 L 225.418 24.805 Z" style="fill: rgb(255, 255, 255);"/>
  <path d="M 189.057 46.85 L 192.468 30.463 L 208.633 30.453 L 205.419 47.102 Z M 212.304 57.149 L 220.643 20.786 L 184.369 20.779 L 176.435 57.061 Z" style="fill: rgb(255, 255, 255);"/>
  <path d="M 150.131 33.614 L 150.668 30.279 L 167.602 30.327 L 166.989 33.763 Z M 147.709 46.876 L 148.246 43.542 L 165.179 43.589 L 164.566 47.026 Z M 165.411 56.314 L 172.194 51.213 L 173.763 43.25 L 169.227 37.588 L 176.275 33.055 L 178.136 24.785 L 173.576 20.655 L 143.24 20.598 L 135.464 56.328 Z" style="fill: rgb(255, 255, 255);"/>
</svg>
